image/china-on6.svg

<svg width="34" height="34" viewBox="0 0 34 34" fill="none" xmlns="http://www.w3.org/2000/svg">
<path d="M16.9167 20.8333C22.3935 20.8333 26.8333 16.3935 26.8333 10.9167C26.8333 5.43984 22.3935 1 16.9167 1C11.4398 1 7 5.43984 7 10.9167C7 16.3935 11.4398 20.8333 16.9167 20.8333Z" stroke="#E03D3B" stroke-width="2" stroke-linecap="round" stroke-linejoin="round"/>
<path d="M11.5472 19.2607L9.83301 32.1666L16.9163 27.9166L23.9997 32.1666L22.2855 19.2466" stroke="#E03D3B" stroke-width="2" stroke-linecap="round" stroke-linejoin="round"/>
<path d="M13.7691 15.1666H12.2577C11.9904 15.1666 11.7341 15.0621 11.5451 14.8761C11.3562 14.6902 11.25 14.4379 11.25 14.1749V10.7041C11.25 10.4411 11.3562 10.1889 11.5451 10.0029C11.7341 9.81695 11.9904 9.71247 12.2577 9.71247H13.7691M17.2959 8.72081V6.73749C17.2959 6.34298 17.1367 5.96463 16.8532 5.68568C16.5698 5.40672 16.1853 5.25 15.7845 5.25L13.7691 9.71247V15.1666H19.4523C19.6953 15.1693 19.9311 15.0855 20.1163 14.9306C20.3015 14.7757 20.4235 14.5601 20.46 14.3237L21.1553 9.86122C21.1772 9.71909 21.1674 9.57397 21.1267 9.43592C21.086 9.29787 21.0152 9.17018 20.9194 9.0617C20.8235 8.95322 20.7049 8.86655 20.5716 8.80769C20.4383 8.74882 20.2937 8.71918 20.1476 8.72081H17.2959Z" stroke="#E03D3B" stroke-width="2" stroke-linecap="round" stroke-linejoin="round"/>
</svg>

<?xml version="1.0" encoding="UTF-8" standalone="no"?>
<svg width="34" xmlns="http://www.w3.org/2000/svg" fill="none" viewBox="0 0 34 34" height="34">
 <path stroke-linejoin="round" stroke="#E03D3B" stroke-width="2" stroke-linecap="round" d="m16.917 20.833c5.477 0 9.916-4.439 9.916-9.916 0-5.4772-4.439-9.917-9.916-9.917s-9.917 4.4398-9.917 9.917c0 5.477 4.44 9.916 9.917 9.916z"/>
 <path stroke-linejoin="round" stroke="#E03D3B" stroke-width="2" stroke-linecap="round" d="m11.547 19.261l-1.714 12.906 7.083-4.25 7.084 4.25-1.714-12.92"/>
 <path stroke-linejoin="round" stroke="#E03D3B" stroke-width="2" stroke-linecap="round" d="m13.769 15.167h-1.511c-0.268 0-0.524-0.105-0.713-0.291s-0.295-0.438-0.295-0.701v-3.471c0-0.263 0.106-0.515 0.295-0.701s0.445-0.2905 0.713-0.2905h1.511m3.527-0.9917v-1.9833c0-0.3945-0.159-0.7729-0.443-1.0518-0.283-0.279-0.668-0.4357-1.069-0.4357l-2.015 4.4625v5.4545h5.683c0.243 0.002 0.479-0.081 0.664-0.236 0.186-0.155 0.308-0.371 0.344-0.607l0.695-4.4628c0.022-0.1421 0.012-0.2872-0.028-0.4253-0.041-0.138-0.112-0.2657-0.208-0.3742-0.095-0.1085-0.214-0.1951-0.347-0.254-0.134-0.0589-0.278-0.0885-0.424-0.0869h-2.852z"/>
</svg>
